X: 1147
T: An Buachaillin Bui
R: jig
M: 6/8
K: Dmajor
B|:AF/G/A DFA|D3 AdB|AFA DFA|BBA BdB|
AF/G/A DFA|D3 ABc|def gfe|fdA B2d:|
|:ADD FDD|edd fdd|ADD FDD|edB BAF|
ADD FDD|edd fdd|gfe fdB|AF/G/A B2d:|

